Newaita-dark/apps/48/bibletime.svg

<svg height="48" viewBox="0 0 48 48" width="48" xmlns="http://www.w3.org/2000/svg" xmlns:xlink="http://www.w3.org/1999/xlink"><linearGradient id="a" gradientUnits="userSpaceOnUse" x1="23.81478" x2="23.81478" y1="42.0509045" y2="44.03547050005"><stop offset="0" stop-opacity=".27451"/><stop offset="1" stop-opacity="0"/></linearGradient><linearGradient id="b"><stop offset="0" stop-opacity=".313726"/><stop offset=".222222" stop-opacity=".27451"/><stop offset="1" stop-opacity="0"/></linearGradient><radialGradient id="c" cx="450.908936" cy="189.579361" gradientTransform="matrix(.00000026 -.117199 -.210958 -.00000015 75.219128 95.392999)" gradientUnits="userSpaceOnUse" r="21.166656" xlink:href="#b"/><radialGradient id="d" cx="450.908936" cy="189.579361" gradientTransform="matrix(-.00000026 .117199 .210958 .00000015 -27.589573 -11.29122)" gradientUnits="userSpaceOnUse" r="21.166656" xlink:href="#b"/><radialGradient id="e" cx="450.908936" cy="189.579361" gradientTransform="matrix(-.00000026 -.117199 .210958 -.00000015 -27.589573 95.392999)" gradientUnits="userSpaceOnUse" r="21.166656" xlink:href="#b"/><radialGradient id="f" cx="450.908936" cy="189.579361" gradientTransform="matrix(.00000026 .117199 -.210958 .00000015 75.219126 -11.291219)" gradientUnits="userSpaceOnUse" r="21.166656" xlink:href="#b"/><linearGradient id="g"><stop offset="0" stop-color="#424242"/><stop offset="1" stop-color="#757575"/></linearGradient><linearGradient id="h" gradientTransform="matrix(.113024 0 0 .326118 -8.78102 50.462022)" gradientUnits="userSpaceOnUse" x1="306.916656" x2="305.954559" xlink:href="#g" y1="-25.791676" y2="-141.414581"/><linearGradient id="i" gradientTransform="matrix(4.556143 0 0 13.146184 -353.972656 2034.180176)" gradientUnits="userSpaceOnUse" x1="165.484848" x2="165.484848" xlink:href="#g" y1="-25.791672" y2="-141.414581"/><linearGradient id="j"><stop offset="0" stop-color="#ffa726"/><stop offset="1" stop-color="#ffb74d"/></linearGradient><linearGradient id="k" gradientUnits="userSpaceOnUse" x1="25.799384" x2="25.799384" xlink:href="#j" y1="42.05096580616" y2="4.34417266504"/><linearGradient id="l" gradientUnits="userSpaceOnUse" x1="275.166314" x2="275.166314" xlink:href="#j" y1="233.49969318561" y2="-168.66647475188"/><linearGradient id="m" gradientUnits="userSpaceOnUse" x1="9.9228275001" x2="9.9228275001" xlink:href="#g" y1="15.75543303125" y2="13.77086768752"/><linearGradient id="n" gradientUnits="userSpaceOnUse" x1="9.9228275001" x2="9.9228275001" xlink:href="#g" y1="32.12809203125" y2="30.14352668752"/><path d="m11.90625 42.050781h23.816406v1.984375h-23.816406zm0 0" fill="url(#a)"/><path d="m35.722656 42.050781h3.96875v-1.984375h-3.96875zm0 0" fill="url(#c)"/><path d="m11.90625 42.050781h-3.96875v1.984375h3.96875zm0 0" fill="url(#d)"/><path d="m11.90625 42.050781h-3.96875v-1.984375h3.96875zm0 0" fill="url(#e)"/><path d="m35.722656 42.050781h3.96875v1.984375h-3.96875zm0 0" fill="url(#f)"/><path d="m9.921875 4.34375h27.785156c1.097657 0 1.984375.890625 1.984375 1.984375v33.738281c0 1.097656-.886718 1.984375-1.984375 1.984375h-27.785156c-1.09375 0-1.984375-.886719-1.984375-1.984375v-33.738281c0-1.09375.890625-1.984375 1.984375-1.984375zm0 0" fill="url(#h)"/><path d="m399.961827 175.101398c-44.247746 0-79.992366 35.74462-79.992366 79.992365v1360.027676c0 44.247745 35.74462 79.992365 79.992366 79.992365h119.988548v-1520.012406zm0 0" fill="url(#i)" stroke="#212121" stroke-linecap="round" stroke-width="11.338583" transform="scale(.0248071)"/><path d="m9.921875 41.9375c-1.097656 0-1.984375-.882812-1.984375-1.984375v-.246094c0 1.097657.886719 1.984375 1.984375 1.984375h27.785156c1.097657 0 1.984375-.886718 1.984375-1.984375v.246094c0 1.101563-.886718 1.984375-1.984375 1.984375zm0 0" fill-opacity=".196078"/><path d="m9.921875 4.457031c-1.097656 0-1.984375.882813-1.984375 1.984375v.246094c0-1.097656.886719-1.984375 1.984375-1.984375h27.785156c1.097657 0 1.984375.886719 1.984375 1.984375v-.246094c0-1.101562-.886718-1.984375-1.984375-1.984375zm0 0" fill="#fff" fill-opacity=".392157"/><path d="m9.921875 4.203125c-1.175781 0-2.125.949219-2.125 2.125v33.738281c0 1.175782.949219 2.125 2.125 2.125h27.785156c1.175781 0 2.125-.949218 2.125-2.125v-33.738281c0-1.175781-.949219-2.125-2.125-2.125zm0 .28125h27.785156c1.023438 0 1.84375.820313 1.84375 1.84375v33.738281c0 1.023438-.820312 1.84375-1.84375 1.84375h-27.785156c-1.023437 0-1.84375-.820312-1.84375-1.84375v-33.738281c0-1.023437.820313-1.84375 1.84375-1.84375zm0 0" fill="#212121"/><path d="m25.800781 9.304688c-.550781 0-.992187.445312-.992187.992187v5.953125h-5.957032c-.546874 0-.992187.445312-.992187.992188v.992187c0 .550781.445313.992187.992187.992187h5.957032v11.910157c0 .546875.441406.992187.992187.992187h.992188c.546875 0 .992187-.445312.992187-.992187v-11.910157h5.953125c.550781 0 .992188-.441406.992188-.992187v-.992187c0-.546876-.441407-.992188-.992188-.992188h-5.953125v-5.953125c0-.546875-.445312-.992187-.992187-.992187zm0 0" fill="url(#k)"/><path d="m25.800781 9.304688c-.550781 0-.992187.445312-.992187.992187v.496094c0-.546875.441406-.992188.992187-.992188h.992188c.546875 0 .992187.445313.992187.992188v-.496094c0-.546875-.445312-.992187-.992187-.992187zm-6.949219 6.945312c-.546874 0-.992187.445312-.992187.992188v.496093c0-.546875.445313-.992187.992187-.992187h5.957032v-.496094zm8.933594 0v.496094h5.953125c.550781 0 .992188.445312.992188.992187v-.496093c0-.546876-.441407-.992188-.992188-.992188zm0 0" fill="#fff" fill-opacity=".392157"/><path d="m17.859375 18.234375v.496094c0 .550781.445313.992187.992187.992187h5.957032v-.496094h-5.957032c-.546874 0-.992187-.441406-.992187-.992187zm16.871094 0c0 .550781-.441407.992187-.992188.992187h-5.953125v.496094h5.953125c.550781 0 .992188-.441406.992188-.992187zm-9.921875 12.902344v.496093c0 .546876.441406.992188.992187.992188h.992188c.546875 0 .992187-.445312.992187-.992188v-.496093c0 .546875-.445312.992187-.992187.992187h-.992188c-.550781 0-.992187-.445312-.992187-.992187zm0 0" fill-opacity=".235294"/><path d="m1040.058214 375.082311c-22.202605 0-39.996182 17.951043-39.996182 39.996183v239.977096h-240.134561c-22.045141 0-39.996183 17.951043-39.996183 39.996183v39.996182c0 22.202606 17.951042 39.996183 39.996183 39.996183h240.134561v480.111657c0 22.04514 17.793577 39.996183 39.996182 39.996183h39.996183c22.04514 0 39.996183-17.951043 39.996183-39.996183v-480.111657h239.977096c22.202605 0 39.996182-17.793577 39.996182-39.996183v-39.996182c0-22.04514-17.793577-39.996183-39.996182-39.996183h-239.977096v-239.977096c0-22.04514-17.951043-39.996183-39.996183-39.996183zm0 0" fill="none" stroke="#212121" stroke-linecap="round" stroke-linejoin="round" stroke-width="11.338583" transform="scale(.0248071)"/><path d="m148.152519-147.506445v359.840637h243.435086c5.874439 0 10.582323-4.707884 10.582323-10.582323v-338.675992c0-5.874439-4.707884-10.582322-10.582323-10.582322zm0 0" style="fill:none;stroke-width:8;stroke-linecap:round;stroke-linejoin:round;stroke-dasharray:16.000002 16.000002;stroke-dashoffset:7.200001;stroke:url(#l)" transform="matrix(.093759 0 0 .093759 0 20.158175)"/><path d="m7.9375 13.769531h4.960938v1.984375h-4.960938zm0 0" fill="url(#m)"/><path d="m7.9375 15.753906v.746094h4.960938v-.746094zm0 0" fill-opacity=".235294"/><path d="m7.9375 13.769531v.496094h4.960938v-.496094zm0 0" fill="#fff" fill-opacity=".392157"/><path d="m84.65859-20.514265h52.911613v21.164646h-52.911613zm0 0" fill="none" stroke="#212121" stroke-linecap="round" stroke-linejoin="round" stroke-width="3" transform="matrix(.093759 0 0 .093759 -.000001 15.692927)"/><path d="m7.9375 30.144531h4.960938v1.984375h-4.960938zm0 0" fill="url(#n)"/><path d="m7.9375 32.128906v.742188h4.960938v-.742188zm0 0" fill-opacity=".235294"/><path d="m7.9375 30.144531v.496094h4.960938v-.496094zm0 0" fill="#fff" fill-opacity=".392157"/><path d="m84.65859-20.489295h52.911613v21.164645h-52.911613zm0 0" fill="none" stroke="#212121" stroke-linecap="round" stroke-linejoin="round" stroke-width="3" transform="matrix(.093759 0 0 .093759 -.000001 32.065586)"/></svg>

<?xml version="1.0" encoding="UTF-8"?>
<svg xmlns="http://www.w3.org/2000/svg" xmlns:xlink="http://www.w3.org/1999/xlink" width="48px" height="48px" viewBox="0 0 48 48" version="1.1">
<defs>
<linearGradient id="linear0" gradientUnits="userSpaceOnUse" x1="254" y1="233.5" x2="254" y2="254.666672" gradientTransform="matrix(0.093759,0,0,0.093759,-0.00000572259,20.158178)">
<stop offset="0" style="stop-color:rgb(0%,0%,0%);stop-opacity:0.27451;"/>
<stop offset="1" style="stop-color:rgb(0%,0%,0%);stop-opacity:0;"/>
</linearGradient>
<radialGradient id="radial0" gradientUnits="userSpaceOnUse" cx="450.908936" cy="189.579361" fx="450.908936" fy="189.579361" r="21.166656" gradientTransform="matrix(0.000000261256,-0.117199,-0.210958,-0.000000152308,75.219128,95.392999)">
<stop offset="0" style="stop-color:rgb(0%,0%,0%);stop-opacity:0.313726;"/>
<stop offset="0.222222" style="stop-color:rgb(0%,0%,0%);stop-opacity:0.27451;"/>
<stop offset="1" style="stop-color:rgb(0%,0%,0%);stop-opacity:0;"/>
</radialGradient>
<radialGradient id="radial1" gradientUnits="userSpaceOnUse" cx="450.908936" cy="189.579361" fx="450.908936" fy="189.579361" r="21.166656" gradientTransform="matrix(-0.000000261256,0.117199,0.210958,0.000000152308,-27.589573,-11.29122)">
<stop offset="0" style="stop-color:rgb(0%,0%,0%);stop-opacity:0.313726;"/>
<stop offset="0.222222" style="stop-color:rgb(0%,0%,0%);stop-opacity:0.27451;"/>
<stop offset="1" style="stop-color:rgb(0%,0%,0%);stop-opacity:0;"/>
</radialGradient>
<radialGradient id="radial2" gradientUnits="userSpaceOnUse" cx="450.908936" cy="189.579361" fx="450.908936" fy="189.579361" r="21.166656" gradientTransform="matrix(-0.000000261256,-0.117199,0.210958,-0.000000152308,-27.589573,95.392999)">
<stop offset="0" style="stop-color:rgb(0%,0%,0%);stop-opacity:0.313726;"/>
<stop offset="0.222222" style="stop-color:rgb(0%,0%,0%);stop-opacity:0.27451;"/>
<stop offset="1" style="stop-color:rgb(0%,0%,0%);stop-opacity:0;"/>
</radialGradient>
<radialGradient id="radial3" gradientUnits="userSpaceOnUse" cx="450.908936" cy="189.579361" fx="450.908936" fy="189.579361" r="21.166656" gradientTransform="matrix(0.000000261256,0.117199,-0.210958,0.000000152308,75.219126,-11.291219)">
<stop offset="0" style="stop-color:rgb(0%,0%,0%);stop-opacity:0.313726;"/>
<stop offset="0.222222" style="stop-color:rgb(0%,0%,0%);stop-opacity:0.27451;"/>
<stop offset="1" style="stop-color:rgb(0%,0%,0%);stop-opacity:0;"/>
</radialGradient>
<linearGradient id="linear1" gradientUnits="userSpaceOnUse" x1="306.916656" y1="-25.791676" x2="305.954559" y2="-141.414581" gradientTransform="matrix(0.113024,0,0,0.326118,-8.78102,50.462022)">
<stop offset="0" style="stop-color:rgb(25.882354%,25.882354%,25.882354%);stop-opacity:1;"/>
<stop offset="1" style="stop-color:rgb(45.882353%,45.882353%,45.882353%);stop-opacity:1;"/>
</linearGradient>
<linearGradient id="linear2" gradientUnits="userSpaceOnUse" x1="165.484848" y1="-25.791672" x2="165.484848" y2="-141.414581" gradientTransform="matrix(4.556143,0,0,13.146184,-353.972656,2034.180176)">
<stop offset="0" style="stop-color:rgb(25.882354%,25.882354%,25.882354%);stop-opacity:1;"/>
<stop offset="1" style="stop-color:rgb(45.882353%,45.882353%,45.882353%);stop-opacity:1;"/>
</linearGradient>
<linearGradient id="linear3" gradientUnits="userSpaceOnUse" x1="1040" y1="1695.118164" x2="1040" y2="175.118118" gradientTransform="matrix(0.0248071,0,0,0.0248071,0,0.00000000000000282)">
<stop offset="0" style="stop-color:rgb(100%,65.490198%,14.901961%);stop-opacity:1;"/>
<stop offset="1" style="stop-color:rgb(100%,71.764708%,30.19608%);stop-opacity:1;"/>
</linearGradient>
<linearGradient id="linear4" gradientUnits="userSpaceOnUse" x1="1040" y1="1695.118164" x2="1040" y2="175.118134" gradientTransform="matrix(0.264583,0,0,0.264583,-0.00000633333,-214.999756)">
<stop offset="0" style="stop-color:rgb(100%,65.490198%,14.901961%);stop-opacity:1;"/>
<stop offset="1" style="stop-color:rgb(100%,71.764708%,30.19608%);stop-opacity:1;"/>
</linearGradient>
<linearGradient id="linear5" gradientUnits="userSpaceOnUse" x1="105.833344" y1="0.666667" x2="105.833344" y2="-20.499998" gradientTransform="matrix(0.093759,0,0,0.093759,-0.000000687566,15.692927)">
<stop offset="0" style="stop-color:rgb(25.882354%,25.882354%,25.882354%);stop-opacity:1;"/>
<stop offset="1" style="stop-color:rgb(45.882353%,45.882353%,45.882353%);stop-opacity:1;"/>
</linearGradient>
<linearGradient id="linear6" gradientUnits="userSpaceOnUse" x1="105.833344" y1="0.666667" x2="105.833344" y2="-20.499998" gradientTransform="matrix(0.093759,0,0,0.093759,-0.000000687566,32.065586)">
<stop offset="0" style="stop-color:rgb(25.882354%,25.882354%,25.882354%);stop-opacity:1;"/>
<stop offset="1" style="stop-color:rgb(45.882353%,45.882353%,45.882353%);stop-opacity:1;"/>
</linearGradient>
</defs>
<g id="surface1">
<path style=" stroke:none;fill-rule:nonzero;fill:url(#linear0);" d="M 11.90625 42.050781 L 35.722656 42.050781 L 35.722656 44.035156 L 11.90625 44.035156 Z M 11.90625 42.050781 "/>
<path style=" stroke:none;fill-rule:nonzero;fill:url(#radial0);" d="M 35.722656 42.050781 L 39.691406 42.050781 L 39.691406 40.066406 L 35.722656 40.066406 Z M 35.722656 42.050781 "/>
<path style=" stroke:none;fill-rule:nonzero;fill:url(#radial1);" d="M 11.90625 42.050781 L 7.9375 42.050781 L 7.9375 44.035156 L 11.90625 44.035156 Z M 11.90625 42.050781 "/>
<path style=" stroke:none;fill-rule:nonzero;fill:url(#radial2);" d="M 11.90625 42.050781 L 7.9375 42.050781 L 7.9375 40.066406 L 11.90625 40.066406 Z M 11.90625 42.050781 "/>
<path style=" stroke:none;fill-rule:nonzero;fill:url(#radial3);" d="M 35.722656 42.050781 L 39.691406 42.050781 L 39.691406 44.035156 L 35.722656 44.035156 Z M 35.722656 42.050781 "/>
<path style=" stroke:none;fill-rule:nonzero;fill:url(#linear1);" d="M 9.921875 4.34375 L 37.707031 4.34375 C 38.804688 4.34375 39.691406 5.234375 39.691406 6.328125 L 39.691406 40.066406 C 39.691406 41.164062 38.804688 42.050781 37.707031 42.050781 L 9.921875 42.050781 C 8.828125 42.050781 7.9375 41.164062 7.9375 40.066406 L 7.9375 6.328125 C 7.9375 5.234375 8.828125 4.34375 9.921875 4.34375 Z M 9.921875 4.34375 "/>
<path style="fill-rule:nonzero;fill:url(#linear2);stroke-width:11.338583;stroke-linecap:round;stroke-linejoin:miter;stroke:rgb(12.941177%,12.941177%,12.941177%);stroke-opacity:1;stroke-miterlimit:4;" d="M 399.961827 175.101398 C 355.714081 175.101398 319.969461 210.846018 319.969461 255.093763 L 319.969461 1615.121439 C 319.969461 1659.369184 355.714081 1695.113804 399.961827 1695.113804 L 519.950375 1695.113804 L 519.950375 175.101398 Z M 399.961827 175.101398 " transform="matrix(0.0248071,0,0,0.0248071,0,0)"/>
<path style=" stroke:none;fill-rule:nonzero;fill:rgb(0%,0%,0%);fill-opacity:0.196078;" d="M 9.921875 41.9375 C 8.824219 41.9375 7.9375 41.054688 7.9375 39.953125 L 7.9375 39.707031 C 7.9375 40.804688 8.824219 41.691406 9.921875 41.691406 L 37.707031 41.691406 C 38.804688 41.691406 39.691406 40.804688 39.691406 39.707031 L 39.691406 39.953125 C 39.691406 41.054688 38.804688 41.9375 37.707031 41.9375 Z M 9.921875 41.9375 "/>
<path style=" stroke:none;fill-rule:nonzero;fill:rgb(100%,100%,100%);fill-opacity:0.392157;" d="M 9.921875 4.457031 C 8.824219 4.457031 7.9375 5.339844 7.9375 6.441406 L 7.9375 6.6875 C 7.9375 5.589844 8.824219 4.703125 9.921875 4.703125 L 37.707031 4.703125 C 38.804688 4.703125 39.691406 5.589844 39.691406 6.6875 L 39.691406 6.441406 C 39.691406 5.339844 38.804688 4.457031 37.707031 4.457031 Z M 9.921875 4.457031 "/>
<path style=" stroke:none;fill-rule:nonzero;fill:rgb(12.941177%,12.941177%,12.941177%);fill-opacity:1;" d="M 9.921875 4.203125 C 8.746094 4.203125 7.796875 5.152344 7.796875 6.328125 L 7.796875 40.066406 C 7.796875 41.242188 8.746094 42.191406 9.921875 42.191406 L 37.707031 42.191406 C 38.882812 42.191406 39.832031 41.242188 39.832031 40.066406 L 39.832031 6.328125 C 39.832031 5.152344 38.882812 4.203125 37.707031 4.203125 Z M 9.921875 4.484375 L 37.707031 4.484375 C 38.730469 4.484375 39.550781 5.304688 39.550781 6.328125 L 39.550781 40.066406 C 39.550781 41.089844 38.730469 41.910156 37.707031 41.910156 L 9.921875 41.910156 C 8.898438 41.910156 8.078125 41.089844 8.078125 40.066406 L 8.078125 6.328125 C 8.078125 5.304688 8.898438 4.484375 9.921875 4.484375 Z M 9.921875 4.484375 "/>
<path style=" stroke:none;fill-rule:nonzero;fill:url(#linear3);" d="M 25.800781 9.304688 C 25.25 9.304688 24.808594 9.75 24.808594 10.296875 L 24.808594 16.25 L 18.851562 16.25 C 18.304688 16.25 17.859375 16.695312 17.859375 17.242188 L 17.859375 18.234375 C 17.859375 18.785156 18.304688 19.226562 18.851562 19.226562 L 24.808594 19.226562 L 24.808594 31.136719 C 24.808594 31.683594 25.25 32.128906 25.800781 32.128906 L 26.792969 32.128906 C 27.339844 32.128906 27.785156 31.683594 27.785156 31.136719 L 27.785156 19.226562 L 33.738281 19.226562 C 34.289062 19.226562 34.730469 18.785156 34.730469 18.234375 L 34.730469 17.242188 C 34.730469 16.695312 34.289062 16.25 33.738281 16.25 L 27.785156 16.25 L 27.785156 10.296875 C 27.785156 9.75 27.339844 9.304688 26.792969 9.304688 Z M 25.800781 9.304688 "/>
<path style=" stroke:none;fill-rule:nonzero;fill:rgb(100%,100%,100%);fill-opacity:0.392157;" d="M 25.800781 9.304688 C 25.25 9.304688 24.808594 9.75 24.808594 10.296875 L 24.808594 10.792969 C 24.808594 10.246094 25.25 9.800781 25.800781 9.800781 L 26.792969 9.800781 C 27.339844 9.800781 27.785156 10.246094 27.785156 10.792969 L 27.785156 10.296875 C 27.785156 9.75 27.339844 9.304688 26.792969 9.304688 Z M 18.851562 16.25 C 18.304688 16.25 17.859375 16.695312 17.859375 17.242188 L 17.859375 17.738281 C 17.859375 17.191406 18.304688 16.746094 18.851562 16.746094 L 24.808594 16.746094 L 24.808594 16.25 Z M 27.785156 16.25 L 27.785156 16.746094 L 33.738281 16.746094 C 34.289062 16.746094 34.730469 17.191406 34.730469 17.738281 L 34.730469 17.242188 C 34.730469 16.695312 34.289062 16.25 33.738281 16.25 Z M 27.785156 16.25 "/>
<path style=" stroke:none;fill-rule:nonzero;fill:rgb(0%,0%,0%);fill-opacity:0.235294;" d="M 17.859375 18.234375 L 17.859375 18.730469 C 17.859375 19.28125 18.304688 19.722656 18.851562 19.722656 L 24.808594 19.722656 L 24.808594 19.226562 L 18.851562 19.226562 C 18.304688 19.226562 17.859375 18.785156 17.859375 18.234375 Z M 34.730469 18.234375 C 34.730469 18.785156 34.289062 19.226562 33.738281 19.226562 L 27.785156 19.226562 L 27.785156 19.722656 L 33.738281 19.722656 C 34.289062 19.722656 34.730469 19.28125 34.730469 18.730469 Z M 24.808594 31.136719 L 24.808594 31.632812 C 24.808594 32.179688 25.25 32.625 25.800781 32.625 L 26.792969 32.625 C 27.339844 32.625 27.785156 32.179688 27.785156 31.632812 L 27.785156 31.136719 C 27.785156 31.683594 27.339844 32.128906 26.792969 32.128906 L 25.800781 32.128906 C 25.25 32.128906 24.808594 31.683594 24.808594 31.136719 Z M 24.808594 31.136719 "/>
<path style="fill:none;stroke-width:11.338583;stroke-linecap:round;stroke-linejoin:round;stroke:rgb(12.941177%,12.941177%,12.941177%);stroke-opacity:1;stroke-miterlimit:4;" d="M 1040.058214 375.082311 C 1017.855609 375.082311 1000.062032 393.033354 1000.062032 415.078494 L 1000.062032 655.05559 L 759.927471 655.05559 C 737.88233 655.05559 719.931288 673.006633 719.931288 695.051773 L 719.931288 735.047955 C 719.931288 757.250561 737.88233 775.044138 759.927471 775.044138 L 1000.062032 775.044138 L 1000.062032 1255.155795 C 1000.062032 1277.200935 1017.855609 1295.151978 1040.058214 1295.151978 L 1080.054397 1295.151978 C 1102.099537 1295.151978 1120.05058 1277.200935 1120.05058 1255.155795 L 1120.05058 775.044138 L 1360.027676 775.044138 C 1382.230281 775.044138 1400.023858 757.250561 1400.023858 735.047955 L 1400.023858 695.051773 C 1400.023858 673.006633 1382.230281 655.05559 1360.027676 655.05559 L 1120.05058 655.05559 L 1120.05058 415.078494 C 1120.05058 393.033354 1102.099537 375.082311 1080.054397 375.082311 Z M 1040.058214 375.082311 " transform="matrix(0.0248071,0,0,0.0248071,0,0)"/>
<path style="fill:none;stroke-width:8;stroke-linecap:round;stroke-linejoin:round;stroke:url(#linear4);stroke-dasharray:16.000002,16.000002;stroke-dashoffset:7.200001;stroke-miterlimit:4;" d="M 148.152519 -147.506445 L 148.152519 212.334192 L 391.587605 212.334192 C 397.462044 212.334192 402.169928 207.626308 402.169928 201.751869 L 402.169928 -136.924123 C 402.169928 -142.798562 397.462044 -147.506445 391.587605 -147.506445 Z M 148.152519 -147.506445 " transform="matrix(0.093759,0,0,0.093759,0,20.158175)"/>
<path style=" stroke:none;fill-rule:nonzero;fill:url(#linear5);" d="M 7.9375 13.769531 L 12.898438 13.769531 L 12.898438 15.753906 L 7.9375 15.753906 Z M 7.9375 13.769531 "/>
<path style=" stroke:none;fill-rule:nonzero;fill:rgb(0%,0%,0%);fill-opacity:0.235294;" d="M 7.9375 15.753906 L 7.9375 16.5 L 12.898438 16.5 L 12.898438 15.753906 Z M 7.9375 15.753906 "/>
<path style=" stroke:none;fill-rule:nonzero;fill:rgb(100%,100%,100%);fill-opacity:0.392157;" d="M 7.9375 13.769531 L 7.9375 14.265625 L 12.898438 14.265625 L 12.898438 13.769531 Z M 7.9375 13.769531 "/>
<path style="fill:none;stroke-width:3;stroke-linecap:round;stroke-linejoin:round;stroke:rgb(12.941177%,12.941177%,12.941177%);stroke-opacity:1;stroke-miterlimit:4;" d="M 84.65859 -20.514265 L 137.570203 -20.514265 L 137.570203 0.650381 L 84.65859 0.650381 Z M 84.65859 -20.514265 " transform="matrix(0.093759,0,0,0.093759,-0.000000687566,15.692927)"/>
<path style=" stroke:none;fill-rule:nonzero;fill:url(#linear6);" d="M 7.9375 30.144531 L 12.898438 30.144531 L 12.898438 32.128906 L 7.9375 32.128906 Z M 7.9375 30.144531 "/>
<path style=" stroke:none;fill-rule:nonzero;fill:rgb(0%,0%,0%);fill-opacity:0.235294;" d="M 7.9375 32.128906 L 7.9375 32.871094 L 12.898438 32.871094 L 12.898438 32.128906 Z M 7.9375 32.128906 "/>
<path style=" stroke:none;fill-rule:nonzero;fill:rgb(100%,100%,100%);fill-opacity:0.392157;" d="M 7.9375 30.144531 L 7.9375 30.640625 L 12.898438 30.640625 L 12.898438 30.144531 Z M 7.9375 30.144531 "/>
<path style="fill:none;stroke-width:3;stroke-linecap:round;stroke-linejoin:round;stroke:rgb(12.941177%,12.941177%,12.941177%);stroke-opacity:1;stroke-miterlimit:4;" d="M 84.65859 -20.489295 L 137.570203 -20.489295 L 137.570203 0.67535 L 84.65859 0.67535 Z M 84.65859 -20.489295 " transform="matrix(0.093759,0,0,0.093759,-0.000000687566,32.065586)"/>
</g>
</svg>
